X:3379
T:Convenience, The
R:Reel
O:Ireland
M:4/4
L:1/8
K:D
Z: amalgamated version by Alf warnock@magma.ca
dABA dABA|GAFA EADA|dABA dABA|FAEA D4:|
|:dff/f/f dfed|cAce gecA|dff/f/f dfed|1 cABc d4:|2 cABc defg||
~a3f gfed|Ae~e2 Ae~e2|a3f gfed|Adce d2fg|
aAA/A/A aAA/A/A|gAA/A/A gAA/A/A|~f3f gfed|Addc defg||
aAgA fAeA|Aee/e/e Aee/e/e|aAgA fAeA|Addc defg|
aAA/A/A AA/A/ AA/A/A|gAA/A/A AA/A/ AA/A/A|f2af gbag|fdec d4|]


